X:139
T: STEHE ICH AM EISENGITTER
N: E0727A
O: Europa, Mitteleuropa, Deutschland, Hessen, Dillkreis; Westerwald;
R: Liebes - Lied, Leid, Klage, Kerker - Lied
M: 4/4
L: 1/8
K: F
 | A3ABAGF | EGB2z4 |
B3BddcB | A4z4 |
c3Afedc | GBd2z4 |
c3AdcBc | A4z4

@@@ Tune index: 4452
